svg/radiator_disabled.svg

<svg xmlns="http://www.w3.org/2000/svg" viewBox="0 0 24 24"><path d="M20 12H4a2 2 0 0 0-2 2v8h2v-2h16v2h2v-8a2 2 0 0 0-2-2M7 17a1 1 0 0 1-1 1 1 1 0 0 1-1-1v-2a1 1 0 0 1 1-1 1 1 0 0 1 1 1zm4 0a1 1 0 0 1-1 1 1 1 0 0 1-1-1v-2a1 1 0 0 1 1-1 1 1 0 0 1 1 1zm4 0a1 1 0 0 1-1 1 1 1 0 0 1-1-1v-2a1 1 0 0 1 1-1 1 1 0 0 1 1 1zm4 0a1 1 0 0 1-1 1 1 1 0 0 1-1-1v-2a1 1 0 0 1 1-1 1 1 0 0 1 1 1z"/></svg>

<?xml version="1.0" encoding="UTF-8"?><!DOCTYPE svg PUBLIC "-//W3C//DTD SVG 1.1//EN" "http://www.w3.org/Graphics/SVG/1.1/DTD/svg11.dtd"><svg xmlns="http://www.w3.org/2000/svg" xmlns:xlink="http://www.w3.org/1999/xlink" version="1.1" id="mdi-radiator-disabled" width="24" height="24" viewBox="0 0 24 24"><path d="M20,12H4A2,2 0 0,0 2,14V22H4V20H20V22H22V14A2,2 0 0,0 20,12M7,17A1,1 0 0,1 6,18A1,1 0 0,1 5,17V15A1,1 0 0,1 6,14A1,1 0 0,1 7,15V17M11,17A1,1 0 0,1 10,18A1,1 0 0,1 9,17V15A1,1 0 0,1 10,14A1,1 0 0,1 11,15V17M15,17A1,1 0 0,1 14,18A1,1 0 0,1 13,17V15A1,1 0 0,1 14,14A1,1 0 0,1 15,15V17M19,17A1,1 0 0,1 18,18A1,1 0 0,1 17,17V15A1,1 0 0,1 18,14A1,1 0 0,1 19,15V17Z" /></svg>
